{"compressionlevel":-1,"height":22,"width":34,"infinite":false,"orientation":"orthogonal","renderorder":"right-down","tiledversion":"1.10.2","version":"1.10","type":"map","tilewidth":16,"tileheight":16,"nextlayerid":8,"nextobjectid":500,"tilesets":[{"firstgid":1,"name":"emakina-atlas","image":"../tilesets/emakina-atlas.png","imagewidth":544,"imageheight":510,"tilewidth":32,"tileheight":32,"margin":1,"spacing":2,"columns":16,"tilecount":227}],"layers":[{"id":1,"name":"floor","type":"tilelayer","width":34,"height":22,"x":0,"y":0,"opacity":1,"visible":true,"data":[136,136,136,136,136,136,136,136,136,136,136,136,136,136,136,136,136,136,136,136,136,136,136,136,136,136,136,136,136,136,136,136,136,136,136,136,136,136,136,136,136,136,136,136,136,136,136,136,136,136,136,136,136,136,136,136,136,136,136,136,136,136,136,136,136,136,136,136,136,138,138,138,138,138,138,138,138,136,135,135,135,135,135,135,135,135,135,135,135,135,136,137,137,137,137,137,137,137,137,137,137,136,136,138,138,138,138,138,138,138,138,136,135,135,135,135,135,135,135,135,135,135,135,135,136,137,137,137,137,137,137,137,137,137,137,136,136,138,138,138,138,138,138,138,138,136,135,135,135,135,135,135,135,135,135,135,135,135,136,137,137,137,137,137,137,137,137,137,137,136,136,138,138,138,138,138,138,138,138,136,135,135,135,135,135,135,135,135,135,135,135,135,136,137,137,137,137,137,137,137,137,137,137,136,136,138,138,138,138,138,138,138,138,136,135,135,135,135,135,135,135,135,135,135,135,135,136,137,137,137,137,137,137,137,137,137,137,136,136,138,138,138,138,138,138,138,138,136,135,135,135,135,135,135,135,135,135,135,135,135,136,137,137,137,137,137,137,137,137,137,137,136,136,136,136,136,135,135,136,136,136,136,136,136,136,136,135,135,136,136,136,136,136,136,136,136,136,136,136,135,135,136,136,136,136,136,136,136,136,136,135,135,136,136,136,136,136,136,136,136,135,135,136,136,136,136,136,136,136,136,136,136,136,135,135,136,136,136,136,136,136,136,136,136,136,136,136,136,136,136,136,136,136,136,136,136,136,136,136,136,136,136,136,136,136,136,136,136,136,136,136,136,136,136,136,136,136,136,136,136,136,136,136,136,136,136,136,136,136,136,136,136,136,136,136,136,136,136,136,136,136,136,136,136,136,136,136,136,136,136,136,136,136,136,136,136,136,136,136,136,136,136,136,136,136,136,136,136,136,136,136,136,136,136,136,136,136,136,136,136,136,136,136,136,136,136,136,136,136,136,136,136,136,136,136,136,136,136,136,136,136,136,136,136,136,136,136,136,136,136,136,136,136,136,136,136,136,136,136,136,136,136,136,136,136,136,136,136,136,136,136,136,136,136,136,136,136,136,136,136,136,136,136,136,136,136,136,136,136,136,136,136,136,136,136,136,136,136,136,136,136,136,136,136,136,136,136,136,136,136,136,136,136,136,136,136,136,136,136,136,136,136,136,136,136,136,136,136,136,136,136,136,136,136,136,136,136,136,136,136,136,136,136,136,136,136,136,136,136,136,136,136,136,136,136,136,136,136,136,136,136,136,136,136,136,136,136,136,136,136,136,136,136,136,136,136,136,136,136,136,136,136,136,136,136,136,136,136,136,136,136,136,136,136,136,136,136,136,136,136,136,136,136,136,136,136,136,136,136,136,136,136,136,136,136,136,136,136,136,136,136,136,136,136,136,136,136,136,136,136,136,136,136,136,136,136,136,136,136,136,136,136,136,136,136,136,136,136,136,136,136,136,136,136,136,136,136,136,136,136,136,136,136,136,136,136,136,136,136,136,136,136,136,136,136,136,136,136,136,136,136,136,136,136,136,136,136,136,136,136,136,136,136,136,136,136,136,136,136,136,136,136,136,136,136,136,136,136,136,136,136,136,136,136,136,136,136,136,136,136,136,136,139,139,136,136,136,136]},{"id":2,"name":"walls","type":"tilelayer","width":34,"height":22,"x":0,"y":0,"opacity":1,"visible":true,"data":[156,140,142,141,142,141,142,141,143,156,157,159,158,159,158,159,158,159,158,159,158,160,156,157,159,158,159,158,159,158,159,158,160,156,156,144,146,145,146,145,146,145,147,156,161,163,162,163,162,163,162,163,162,163,162,164,156,161,163,162,163,162,163,162,163,162,164,156,156,0,0,0,0,0,0,0,0,156,0,199,200,200,200,200,200,200,200,200,201,0,156,0,0,0,0,0,0,0,0,0,0,156,156,0,0,0,0,0,0,0,0,156,0,207,208,208,208,208,208,208,208,208,209,0,156,0,0,0,0,0,0,0,0,0,0,156,156,0,0,199,200,200,200,201,0,156,0,207,208,208,208,208,208,208,208,208,209,0,156,0,0,0,0,0,0,0,0,0,0,156,156,0,0,207,208,208,208,209,0,156,0,207,208,208,208,208,208,208,208,208,209,0,156,0,0,0,0,0,0,0,0,0,0,156,156,0,0,207,208,208,208,209,0,156,0,212,213,213,213,213,213,213,213,213,214,0,156,0,0,0,0,0,0,0,0,0,0,156,156,0,0,212,213,213,213,214,0,156,0,0,0,0,0,0,0,0,0,0,0,0,156,0,0,0,0,0,0,0,0,0,0,156,156,148,150,151,0,0,148,150,149,150,149,150,149,151,0,0,148,150,149,150,149,150,149,150,149,150,151,0,0,148,150,149,151,156,156,152,154,155,0,0,152,154,153,154,153,154,153,155,0,0,152,154,153,154,153,154,153,154,153,154,155,0,0,152,154,153,155,156,156,0,0,0,0,0,0,0,0,0,0,0,0,0,0,0,0,0,0,0,0,0,0,0,0,0,0,0,0,0,0,0,0,156,156,0,0,0,0,0,0,0,0,0,0,0,0,0,0,0,0,0,0,0,0,0,0,0,0,0,0,0,0,0,0,0,0,156,156,0,0,0,0,0,0,0,0,0,0,0,0,0,0,0,0,0,0,0,0,0,0,0,0,0,199,200,200,200,200,201,0,156,156,0,0,0,0,0,0,0,0,0,0,0,0,0,0,0,0,0,0,0,0,0,0,0,0,0,207,208,208,208,208,209,0,156,156,0,0,0,0,0,0,0,0,0,0,0,0,0,0,0,0,0,0,0,0,0,0,0,0,0,207,208,208,208,208,209,0,156,156,0,0,0,0,0,0,0,0,0,0,0,0,0,0,0,0,0,0,0,0,0,0,0,0,0,212,213,213,213,213,214,0,156,156,0,0,0,0,0,0,0,0,0,0,0,0,0,0,0,0,0,0,0,0,0,0,0,0,0,0,0,0,0,0,0,0,156,156,0,0,0,0,0,0,0,0,0,0,0,0,0,0,0,0,0,0,0,0,0,0,0,0,0,0,0,0,0,0,0,0,156,156,0,0,0,0,0,0,0,0,0,0,0,0,0,0,0,0,0,0,0,0,0,0,0,0,0,0,0,0,0,0,0,0,156,156,0,0,0,0,0,0,0,0,0,0,0,0,0,0,0,0,0,0,0,0,0,0,0,0,0,0,0,0,0,0,0,0,156,156,0,0,0,0,0,0,0,0,0,0,0,0,0,0,0,0,0,0,0,0,0,0,0,0,0,0,0,0,0,0,0,0,156,156,156,156,156,156,156,156,156,156,156,156,156,156,156,156,156,156,156,156,156,156,156,156,156,156,156,156,156,0,0,156,156,156,156]},{"id":3,"name":"furniture-below","type":"tilelayer","width":34,"height":22,"x":0,"y":0,"opacity":1,"visible":true,"data":[0,23,0,1,2,0,15,16,0,0,0,1,2,0,0,29,30,0,0,1,2,0,0,0,0,0,1,2,0,20,47,0,0,0,0,28,0,3,4,0,17,18,0,0,0,3,4,0,0,32,33,0,0,3,4,0,0,0,0,0,3,4,0,0,49,0,0,0,0,186,187,0,0,217,196,197,198,0,215,0,0,0,0,0,0,0,0,0,0,215,0,56,57,97,31,98,99,81,82,46,217,0,0,189,190,0,0,218,202,203,204,0,216,0,170,171,171,171,171,171,171,172,0,216,0,63,64,106,35,107,108,83,84,48,218,0,0,71,72,0,183,184,185,0,52,0,0,0,176,177,177,177,177,177,177,178,0,0,0,0,0,0,0,0,0,0,0,0,0,0,0,76,77,0,192,193,194,0,59,0,21,22,179,180,180,180,180,180,180,181,0,0,0,0,0,0,0,0,0,0,0,131,132,0,0,169,0,0,0,0,0,0,66,0,26,27,0,0,0,0,0,0,0,0,0,39,0,0,0,169,0,0,0,169,0,133,134,0,0,9,0,0,0,0,0,0,38,0,0,0,0,0,0,0,0,0,0,0,0,0,0,9,0,0,0,0,0,0,0,0,219,0,0,20,0,0,0,0,0,0,0,0,0,0,0,0,0,0,0,0,0,15,16,0,0,20,0,0,0,0,0,0,112,0,0,0,0,0,0,0,0,0,0,0,0,0,0,0,0,0,0,0,0,0,0,17,18,0,0,0,0,0,0,0,0,0,0,0,0,0,0,170,171,172,0,0,170,171,172,215,0,170,171,172,0,0,170,171,172,217,0,170,171,172,0,182,0,0,0,0,0,0,46,0,0,179,180,181,0,0,179,180,181,216,0,179,180,181,0,0,179,180,181,218,0,179,180,181,0,0,0,53,54,55,0,0,48,0,0,0,0,0,0,0,0,0,0,0,0,0,0,0,0,0,0,0,0,0,0,0,0,0,0,0,0,60,61,62,0,52,0,0,0,0,0,0,0,0,0,0,0,0,0,0,0,0,0,0,0,0,0,0,0,0,0,0,0,71,72,0,0,0,0,59,0,0,0,170,171,172,38,0,170,171,172,34,0,170,171,172,50,0,170,171,172,0,0,170,171,172,0,76,77,0,188,0,0,66,0,0,0,179,180,181,0,0,179,180,181,37,0,179,180,181,51,0,179,180,181,0,39,179,180,181,0,0,0,0,0,0,0,0,0,0,0,0,0,0,0,0,0,0,0,0,0,0,0,0,0,0,0,0,0,0,0,0,0,0,0,0,0,0,0,0,0,0,9,0,0,0,0,0,0,0,0,0,0,0,0,0,0,0,0,0,0,0,0,0,0,0,0,0,0,186,187,0,183,184,185,0,0,0,0,170,171,172,0,0,170,171,172,0,0,170,171,172,5,6,170,171,172,0,0,170,171,172,0,189,190,0,192,193,194,0,0,0,0,179,180,181,219,0,179,180,181,0,9,179,180,181,7,8,179,180,181,38,0,179,180,181,10,215,0,0,0,0,0,0,217,0,0,0,0,0,0,0,0,0,0,0,0,0,0,0,0,0,0,0,0,0,0,0,0,0,0,216,0,0,0,0,0,0,218,0,0,0,0,0,0,0,0,0,0,0,0,0,0,0,0,0,0,0,0,0,0,0,0,0,0,0,0,0,0,0,0,0,0,0]},{"id":4,"name":"furniture-above","type":"tilelayer","width":34,"height":22,"x":0,"y":0,"opacity":1,"visible":true,"data":[0,0,0,0,0,0,0,0,0,0,0,0,0,0,0,0,0,0,0,0,0,0,0,0,0,0,0,0,0,0,0,0,0,0,0,0,0,0,0,0,0,0,0,0,0,0,0,0,0,0,0,0,0,0,0,0,0,0,0,0,0,0,0,0,0,0,0,0,0,0,0,0,0,0,0,0,0,0,0,0,0,90,90,90,90,90,90,0,0,0,0,0,0,36,0,92,93,0,0,0,0,0,0,0,0,0,0,0,0,0,0,0,0,0,0,0,0,0,0,0,0,0,0,0,0,0,0,0,0,0,0,0,0,0,0,0,0,0,0,0,221,43,24,0,0,0,0,0,0,41,0,122,0,25,226,0,0,0,0,0,0,0,0,0,0,0,0,0,0,0,0,0,0,0,0,40,0,0,0,0,0,0,0,0,0,0,0,0,0,0,0,0,0,0,0,175,0,0,0,175,0,0,0,0,0,226,0,0,0,14,0,0,0,0,0,0,0,12,12,12,12,12,12,0,0,0,0,0,0,227,0,0,0,225,0,0,0,0,0,0,0,0,0,0,0,0,0,0,0,0,0,0,0,0,0,0,0,0,0,0,0,0,0,175,0,0,0,175,0,0,0,0,0,0,0,0,0,0,0,0,0,0,0,0,0,0,0,0,0,0,0,0,0,0,0,0,0,0,0,0,0,0,0,0,0,0,0,0,0,0,0,0,0,0,0,0,0,0,0,0,0,0,0,0,0,0,0,0,0,0,0,0,0,0,0,0,0,0,0,0,0,121,43,25,0,0,220,43,24,0,0,41,43,122,0,0,222,43,41,0,0,128,43,121,0,219,0,0,0,0,0,0,0,0,0,0,40,0,0,0,0,40,0,0,0,0,40,0,0,0,0,40,0,0,0,0,40,0,0,0,0,0,0,0,0,0,0,0,0,0,12,0,0,0,0,11,0,0,0,0,14,0,0,0,0,13,0,0,0,0,12,0,0,0,0,0,0,0,0,0,0,0,0,0,0,0,0,0,0,0,0,0,0,0,0,0,0,0,0,0,0,0,0,0,0,0,0,0,0,0,0,0,0,0,0,0,0,224,43,19,0,0,121,43,25,0,0,220,43,24,0,0,41,43,122,0,0,222,43,41,0,0,0,0,222,0,0,0,0,0,0,0,40,0,0,0,0,40,0,0,0,0,40,0,0,0,0,40,0,0,0,0,40,0,0,0,0,0,0,0,0,0,0,0,0,0,11,0,0,0,0,14,0,0,0,0,13,0,0,0,0,12,0,0,0,0,11,0,0,0,0,0,0,90,0,0,0,0,0,0,0,0,0,0,0,0,0,0,0,0,0,0,0,0,0,0,0,0,0,0,0,0,0,0,0,0,223,43,24,0,0,0,0,128,43,121,0,0,224,43,19,0,0,121,43,25,0,0,220,43,24,0,0,41,43,122,0,0,0,0,0,0,0,0,0,0,0,0,40,0,0,0,0,40,0,0,0,0,40,0,0,0,0,40,0,0,0,0,40,0,0,0,0,0,0,0,0,0,0,0,0,0,14,0,0,0,0,13,0,0,0,0,12,0,0,0,0,11,0,0,0,0,14,0,0,0,0,0,0,0,0,0,0,0,0,0,0,0,0,0,0,0,0,0,0,0,0,0,0,0,0,0,0,0,0,0,0,0,0,0,0,0,0,0,0,0,0,0]},{"id":5,"name":"collision","type":"tilelayer","width":34,"height":22,"x":0,"y":0,"opacity":1,"visible":true,"data":[1,1,1,1,1,1,1,1,1,1,1,1,1,1,1,1,1,1,1,1,1,1,1,1,1,1,1,1,1,1,1,1,1,1,1,1,1,1,1,1,1,1,1,1,1,1,1,1,1,1,1,1,1,1,1,1,1,1,1,1,1,1,1,1,1,1,1,1,1,1,1,0,0,1,1,1,1,1,1,0,0,0,0,0,0,0,0,0,0,1,1,1,1,1,1,1,1,1,1,1,1,1,1,1,1,0,0,1,1,1,1,1,1,0,1,1,1,1,1,1,1,1,0,1,1,1,1,1,1,1,1,1,1,1,1,1,1,1,1,0,1,1,1,0,1,1,0,0,1,1,1,1,1,1,1,1,0,0,1,0,0,0,0,0,0,0,0,0,0,1,1,1,1,0,1,1,1,0,1,1,1,1,1,1,1,1,1,1,1,1,0,0,1,0,0,0,0,0,0,0,0,1,1,1,1,1,0,0,0,0,0,0,1,1,1,1,0,0,0,0,0,0,0,0,0,1,1,0,0,1,0,0,0,1,0,1,1,1,1,1,0,0,0,0,0,0,1,1,0,0,0,0,0,0,0,0,0,0,0,0,1,1,0,0,0,0,0,0,0,0,1,1,1,1,1,1,0,0,1,1,1,1,1,1,1,1,0,0,1,1,1,1,1,1,1,1,1,1,1,0,0,1,1,1,1,1,1,1,1,1,0,0,1,1,1,1,1,1,1,1,0,0,1,1,1,1,1,1,1,1,1,1,1,0,0,1,1,1,1,1,1,1,1,1,0,0,1,1,1,1,0,1,1,1,0,0,1,1,1,1,0,1,1,1,0,1,0,0,0,0,0,0,1,1,1,1,1,1,0,0,1,1,1,1,0,1,1,1,0,0,1,1,1,1,0,1,1,1,0,0,0,1,1,1,0,0,1,1,1,0,0,0,0,0,0,0,0,0,0,0,0,0,0,0,0,0,0,0,0,0,0,0,0,0,0,1,1,1,0,1,0,1,1,0,0,0,0,0,0,0,0,0,0,0,0,0,0,0,0,0,0,0,0,0,0,0,0,1,1,0,0,0,0,1,0,1,1,1,1,1,1,0,1,1,1,1,0,1,1,1,1,0,1,1,1,0,0,1,1,1,0,1,1,0,1,0,0,1,0,1,1,1,1,1,0,0,1,1,1,1,0,1,1,1,1,0,1,1,1,0,1,1,1,1,0,0,0,0,0,0,0,0,0,1,1,0,0,0,0,0,0,0,0,0,0,0,0,0,0,0,0,0,0,0,0,0,0,0,0,0,0,0,0,1,0,0,1,1,1,0,0,0,0,0,0,0,0,0,0,0,0,0,0,0,0,0,0,0,0,0,0,0,0,1,1,0,1,1,1,0,0,1,1,1,1,1,0,0,1,1,1,0,0,1,1,1,1,1,1,1,1,0,0,1,1,1,0,1,1,0,1,1,1,0,0,1,1,1,1,1,1,0,1,1,1,0,1,1,1,1,1,1,1,1,1,1,0,1,1,1,1,1,0,0,0,0,0,0,1,1,1,0,0,0,0,0,0,0,0,0,0,0,0,0,0,0,0,0,0,0,0,0,0,0,0,1,0,0,0,0,0,0,1,1,1,1,1,1,1,1,1,1,1,1,1,1,1,1,1,1,1,1,1,1,1,1,1,1,1,1,1,1,0,0,1,1,1,1]},{"id":6,"name":"spawn-points","type":"objectgroup","x":0,"y":0,"opacity":1,"visible":true,"objects":[{"id":100,"name":"desk-ceo","type":"","x":80,"y":96,"width":0,"height":0,"rotation":0,"visible":true},{"id":101,"name":"warroom-seat","type":"","x":256,"y":96,"width":0,"height":0,"rotation":0,"visible":true},{"id":102,"name":"cafe-seat-1","type":"","x":400,"y":80,"width":0,"height":0,"rotation":0,"visible":true},{"id":103,"name":"cafe-seat-2","type":"","x":400,"y":112,"width":0,"height":0,"rotation":0,"visible":true},{"id":104,"name":"cafe-seat-3","type":"","x":464,"y":80,"width":0,"height":0,"rotation":0,"visible":true},{"id":105,"name":"cafe-seat-4","type":"","x":464,"y":112,"width":0,"height":0,"rotation":0,"visible":true},{"id":106,"name":"cafe-stand-coffee","type":"","x":416,"y":64,"width":0,"height":0,"rotation":0,"visible":true},{"id":107,"name":"cafe-stand-vending","type":"","x":464,"y":64,"width":0,"height":0,"rotation":0,"visible":true},{"id":108,"name":"pc-1","type":"","x":32,"y":192,"width":0,"height":0,"rotation":0,"visible":true},{"id":109,"name":"pc-2","type":"","x":112,"y":192,"width":0,"height":0,"rotation":0,"visible":true},{"id":110,"name":"pc-3","type":"","x":192,"y":192,"width":0,"height":0,"rotation":0,"visible":true},{"id":111,"name":"pc-4","type":"","x":272,"y":192,"width":0,"height":0,"rotation":0,"visible":true},{"id":112,"name":"pc-5","type":"","x":352,"y":192,"width":0,"height":0,"rotation":0,"visible":true},{"id":113,"name":"pc-6","type":"","x":32,"y":256,"width":0,"height":0,"rotation":0,"visible":true},{"id":114,"name":"desk-chief-architect","type":"","x":112,"y":256,"width":0,"height":0,"rotation":0,"visible":true},{"id":115,"name":"desk-product-manager","type":"","x":192,"y":256,"width":0,"height":0,"rotation":0,"visible":true},{"id":116,"name":"desk-team-lead","type":"","x":272,"y":256,"width":0,"height":0,"rotation":0,"visible":true},{"id":117,"name":"desk-backend-engineer","type":"","x":352,"y":256,"width":0,"height":0,"rotation":0,"visible":true},{"id":118,"name":"desk-ui-ux-expert","type":"","x":32,"y":320,"width":0,"height":0,"rotation":0,"visible":true},{"id":119,"name":"desk-data-engineer","type":"","x":112,"y":320,"width":0,"height":0,"rotation":0,"visible":true},{"id":120,"name":"desk-project-manager","type":"","x":192,"y":320,"width":0,"height":0,"rotation":0,"visible":true},{"id":121,"name":"desk-market-researcher","type":"","x":272,"y":320,"width":0,"height":0,"rotation":0,"visible":true},{"id":122,"name":"desk-agent-organizer","type":"","x":352,"y":320,"width":0,"height":0,"rotation":0,"visible":true},{"id":123,"name":"entrance","type":"","x":448,"y":320,"width":0,"height":0,"rotation":0,"visible":true}]},{"id":7,"name":"zones","type":"objectgroup","x":0,"y":0,"opacity":1,"visible":true,"objects":[{"id":300,"name":"boardroom","type":"","x":160,"y":32,"width":192,"height":96,"rotation":0,"visible":true},{"id":301,"name":"cafeteria","type":"","x":368,"y":32,"width":160,"height":96,"rotation":0,"visible":true}]}]}