{"compressionlevel":-1,"height":22,"width":34,"infinite":false,"orientation":"orthogonal","renderorder":"right-down","tiledversion":"1.10.2","version":"1.10","type":"map","tilewidth":16,"tileheight":16,"nextlayerid":8,"nextobjectid":500,"tilesets":[{"firstgid":1,"name":"emakina-atlas","image":"../tilesets/emakina-atlas.png","imagewidth":544,"imageheight":510,"tilewidth":32,"tileheight":32,"margin":1,"spacing":2,"columns":16,"tilecount":227}],"layers":[{"id":1,"name":"floor","type":"tilelayer","width":34,"height":22,"x":0,"y":0,"opacity":1,"visible":true,"data":[136,136,136,136,136,136,136,136,136,136,136,136,136,136,136,136,136,136,136,136,136,136,136,136,136,136,136,136,136,136,136,136,136,136,136,136,136,136,136,136,136,136,136,136,136,136,136,136,136,136,136,136,136,136,136,136,136,136,136,136,136,136,136,136,136,136,136,136,136,136,136,136,136,136,136,136,136,136,136,136,136,136,136,136,136,136,136,136,136,136,138,138,138,138,138,138,138,138,138,138,138,136,136,136,136,136,136,136,136,136,136,136,136,136,136,136,136,136,136,136,136,136,136,136,138,138,138,138,138,138,138,138,138,138,138,136,136,136,136,136,136,136,136,136,136,136,136,136,136,136,136,136,136,136,136,136,136,136,138,138,138,138,138,138,138,138,138,138,138,136,136,136,136,136,136,136,136,136,136,136,136,136,136,136,136,136,136,136,136,136,136,136,138,138,138,138,138,138,138,138,138,138,138,136,136,136,136,136,136,136,136,136,136,136,136,136,136,136,136,136,136,136,136,136,136,135,138,138,138,138,138,138,138,138,138,138,138,136,136,136,136,136,136,136,136,136,136,136,136,136,136,136,136,136,136,136,136,136,136,135,138,138,138,138,138,138,138,138,138,138,138,136,136,136,136,136,136,136,136,136,136,136,136,136,136,136,136,136,136,136,136,136,136,136,136,135,135,136,136,136,136,136,136,136,136,136,139,136,136,136,136,136,136,136,136,136,136,136,136,136,136,136,136,136,136,136,136,136,136,135,135,136,136,136,136,136,136,136,136,136,139,136,136,136,136,136,136,136,136,136,136,136,136,136,136,136,136,136,136,136,136,135,135,135,135,135,135,135,135,135,135,135,135,136,136,136,136,136,136,136,136,136,136,136,135,135,136,135,135,136,136,136,136,136,136,136,135,135,135,135,135,135,135,135,135,135,135,136,136,136,136,136,136,136,136,136,136,136,135,135,136,135,135,136,136,136,136,136,136,136,135,135,135,135,135,135,135,135,135,135,135,136,136,137,137,137,137,137,137,137,137,137,137,137,136,135,135,135,135,135,135,135,135,136,135,135,135,135,135,135,135,135,135,135,135,136,136,137,137,137,137,137,137,137,137,137,137,137,136,135,135,135,135,135,135,135,135,136,135,135,135,135,135,135,135,135,135,135,135,136,136,137,137,137,137,137,137,137,137,137,137,137,136,135,135,135,135,135,135,135,135,136,135,135,135,135,135,135,135,135,135,135,135,136,136,137,137,137,137,137,137,137,137,137,137,137,136,135,135,135,135,135,135,135,135,136,135,135,135,135,135,135,135,135,135,135,135,136,136,137,137,137,137,137,137,137,137,137,137,137,136,135,135,135,135,135,135,135,135,136,135,135,135,135,135,135,135,135,135,135,135,136,136,137,137,137,137,137,137,137,137,137,137,137,136,135,135,135,135,135,135,135,135,136,135,135,135,135,135,135,135,135,135,135,135,136,136,137,137,137,137,137,137,137,137,137,137,137,136,135,135,135,135,135,135,135,135,136,135,135,135,135,135,135,135,135,135,135,135,136,136,137,137,137,137,137,137,137,137,137,137,137,136,135,135,135,135,135,135,135,135,136,135,135,135,135,135,135,135,135,135,135,135,136,136,136,136,136,136,136,136,136,136,136,136,136,136,136,136,136,136,136,136,136,136,136,136,136,136,136,136,136,136,136,136,136,136,136]},{"id":2,"name":"walls","type":"tilelayer","width":34,"height":22,"x":0,"y":0,"opacity":1,"visible":true,"data":[156,157,159,158,159,158,159,158,159,158,159,158,159,158,159,158,159,158,159,158,160,156,140,142,141,142,141,142,141,142,141,142,143,156,156,161,163,162,163,162,163,162,163,162,163,162,163,162,163,162,163,162,163,162,164,156,144,146,145,146,145,146,145,146,145,146,147,156,156,0,0,0,0,0,0,0,0,0,0,0,0,0,0,0,0,0,0,0,0,156,0,0,0,0,0,0,0,0,0,0,0,156,156,0,0,0,0,0,0,0,0,199,200,200,200,200,200,200,200,201,0,0,0,156,0,0,0,0,0,0,0,0,0,0,0,156,156,0,0,0,0,0,0,0,0,212,213,213,213,213,213,213,213,214,0,0,0,156,0,0,199,200,200,200,200,200,201,0,0,156,156,0,0,0,0,0,0,0,0,0,0,0,0,0,0,0,0,0,0,0,0,156,0,0,207,208,208,208,208,208,209,0,0,156,156,0,0,0,0,0,0,0,0,0,0,0,0,0,0,0,0,0,0,0,0,0,0,0,207,208,208,208,208,208,209,0,0,156,156,0,0,0,0,0,0,0,0,0,0,0,0,0,0,0,0,0,0,0,0,0,0,0,212,213,213,213,213,213,214,0,0,156,156,0,0,0,0,0,0,0,0,0,0,0,0,0,0,0,0,0,0,0,0,156,148,0,0,148,150,149,150,149,150,149,151,156,0,0,0,0,0,0,0,0,0,0,0,0,0,0,0,0,0,0,0,0,0,156,152,0,0,152,154,153,154,153,154,153,155,156,0,0,0,0,0,0,0,0,0,0,0,0,0,0,0,0,0,0,0,0,0,0,0,0,0,0,0,0,0,0,0,0,0,156,156,157,159,158,159,158,159,158,159,160,0,0,148,0,0,148,150,149,150,149,151,156,0,0,0,0,0,0,0,0,0,0,0,156,156,161,163,162,163,162,163,162,163,164,0,0,152,0,0,152,154,153,154,153,155,156,0,0,0,0,0,0,0,0,0,0,0,156,156,0,0,0,0,0,0,0,0,0,0,0,156,0,0,0,0,0,0,0,0,156,0,0,0,0,0,0,0,0,0,0,0,156,156,0,0,0,0,0,0,0,0,0,0,0,156,0,199,200,200,200,200,200,201,156,0,0,0,0,0,0,0,0,0,0,0,156,156,0,0,0,0,0,0,0,0,0,0,0,156,0,207,208,208,208,208,208,209,156,199,200,200,200,200,201,0,0,0,0,0,156,156,0,0,0,0,0,0,0,0,0,0,0,156,0,207,208,208,208,208,208,209,156,207,208,208,208,208,209,0,0,0,0,0,156,156,0,0,0,0,0,0,0,0,0,0,0,156,0,207,208,208,208,208,208,209,156,207,208,208,208,208,209,0,0,0,0,0,156,156,0,0,0,0,0,0,0,0,0,0,0,156,0,212,213,213,213,213,213,214,156,207,208,208,208,208,209,0,0,0,0,0,156,156,0,0,0,0,0,0,0,0,0,0,0,156,0,0,0,0,0,0,0,0,156,212,213,213,213,213,214,0,0,0,0,0,156,156,0,0,0,0,0,0,0,0,0,0,0,156,0,0,0,0,0,0,0,0,156,0,0,0,0,0,0,0,0,0,0,0,156,156,156,156,156,156,156,156,156,156,156,156,156,156,156,156,156,156,156,156,156,156,156,156,156,156,156,156,156,156,156,156,156,156,156]},{"id":3,"name":"furniture-below","type":"tilelayer","width":34,"height":22,"x":0,"y":0,"opacity":1,"visible":true,"data":[0,23,1,2,0,94,95,96,0,0,0,0,0,0,0,0,0,0,1,2,0,0,0,0,1,2,0,0,0,15,16,0,195,0,0,28,3,4,0,103,104,105,0,0,0,0,0,0,0,0,0,0,3,4,0,0,0,0,3,4,0,0,0,17,18,0,0,0,0,100,0,0,0,0,0,0,120,0,0,0,0,0,0,0,0,0,0,58,58,0,186,187,0,0,196,197,198,0,168,167,217,0,0,109,0,0,126,123,124,0,127,0,117,0,0,0,125,0,0,0,0,65,65,0,189,190,0,0,202,203,204,0,174,173,218,0,0,114,0,0,0,129,130,0,0,0,0,0,118,0,0,0,119,0,0,70,70,0,0,0,0,0,183,184,185,0,0,0,0,0,0,0,85,86,0,0,87,88,0,0,89,85,0,0,86,87,0,0,88,89,9,0,38,0,0,0,192,193,194,0,0,0,0,0,0,120,0,0,0,0,0,0,0,0,0,0,0,0,0,0,0,0,0,0,0,0,0,0,0,0,0,0,0,0,67,68,69,0,0,127,0,0,0,0,0,0,0,0,0,0,0,0,0,0,0,0,0,0,0,0,0,0,0,0,0,0,0,0,73,74,75,0,0,0,85,86,0,0,87,88,0,0,89,85,0,0,86,87,0,0,88,89,215,0,0,0,0,0,0,0,0,0,0,0,0,0,0,0,0,0,0,0,0,0,0,0,0,0,0,0,0,0,0,0,0,0,216,0,0,0,0,0,0,0,0,0,0,0,0,0,0,0,0,0,0,0,0,0,0,0,0,0,0,0,0,0,0,0,0,0,0,0,0,0,0,101,102,101,102,101,102,215,50,0,0,0,20,44,45,0,0,0,0,0,0,0,0,0,0,0,165,166,0,0,0,0,0,0,0,110,111,110,111,110,111,216,51,0,0,0,0,0,0,0,0,0,0,0,0,0,0,0,0,0,0,0,0,0,0,0,0,0,0,115,116,115,116,115,116,0,0,0,0,56,57,97,31,98,99,81,82,46,0,0,0,0,0,0,0,0,0,0,215,0,0,0,0,0,0,0,0,0,0,0,0,0,0,63,64,106,35,107,108,83,84,48,0,0,0,0,0,0,0,0,0,0,216,0,0,0,0,0,0,0,170,171,172,0,52,0,0,0,0,0,0,0,0,0,0,0,0,215,0,0,0,170,171,171,171,172,0,0,0,0,0,0,0,0,179,180,181,0,59,0,0,0,0,0,0,0,0,0,0,0,0,216,0,0,0,176,177,177,177,178,0,0,0,170,171,172,0,0,0,0,0,0,66,0,0,0,0,169,0,188,0,169,0,0,0,0,0,0,0,179,180,180,180,181,0,0,0,179,180,181,0,0,0,0,0,0,0,0,0,71,72,0,0,0,0,0,0,0,0,52,0,0,0,0,0,0,0,0,0,0,0,0,0,0,0,0,205,206,0,0,0,0,0,76,77,0,0,0,0,0,0,0,0,59,0,21,22,0,0,0,0,0,0,0,0,0,0,0,0,0,210,211,0,0,217,0,0,9,0,0,0,219,0,0,0,38,0,66,0,26,27,0,0,78,79,80,39,0,38,0,0,0,0,0,0,0,0,9,218,0,0,0,0,0,0,0,0,0,0,0,0,0,0,0,0,0,0,0,0,0,0,0,0,0,0,0,0,0,0,0,0,0,0,0]},{"id":4,"name":"furniture-above","type":"tilelayer","width":34,"height":22,"x":0,"y":0,"opacity":1,"visible":true,"data":[0,0,0,0,0,0,0,0,0,0,0,0,0,0,0,0,0,0,0,0,0,0,0,0,0,0,0,0,0,0,0,0,0,0,0,0,0,0,0,0,0,0,0,0,0,0,0,0,0,0,0,0,0,0,0,0,0,0,0,0,0,0,0,0,0,0,0,0,0,0,0,0,0,0,90,0,0,0,0,0,0,0,0,0,0,0,0,0,0,0,0,0,0,0,0,0,0,0,0,0,0,0,0,0,0,0,0,122,93,0,0,0,0,0,0,0,0,0,0,0,0,0,0,0,0,0,0,0,0,0,0,0,0,0,0,0,0,0,0,0,0,0,0,0,0,0,0,0,0,0,0,0,0,0,0,0,0,0,0,0,0,0,221,43,113,0,0,0,0,0,0,0,0,0,0,0,0,0,0,0,0,0,0,0,0,0,0,0,0,0,0,0,0,0,0,0,0,40,0,0,0,0,0,0,0,0,91,91,0,0,91,91,0,0,91,91,0,0,91,91,0,0,91,91,0,0,0,0,0,0,0,14,0,0,0,0,0,0,0,0,0,0,0,0,0,0,0,0,0,0,0,0,0,0,0,0,0,0,0,0,0,0,0,0,0,0,0,0,0,0,0,0,0,0,0,0,0,0,0,0,0,0,0,0,0,0,0,0,0,0,0,0,0,0,0,0,0,0,0,0,0,0,0,0,0,0,0,0,91,91,0,0,91,91,0,0,91,91,0,0,91,91,0,0,91,91,0,0,0,0,0,0,0,0,0,0,0,0,0,0,0,0,0,0,0,0,0,0,0,0,0,0,0,0,0,0,0,0,0,0,0,0,0,0,0,0,0,0,0,0,0,0,0,0,0,0,0,0,0,0,0,0,0,0,0,0,0,0,0,0,0,0,0,0,0,0,0,0,0,0,0,0,0,0,0,0,0,0,0,0,0,0,0,0,0,0,0,0,0,0,0,0,0,0,0,0,0,0,0,0,0,0,0,0,0,0,0,0,0,0,0,0,0,0,0,36,0,92,93,0,0,0,0,0,0,0,0,0,0,0,0,0,0,0,0,0,0,0,0,0,0,0,0,0,0,0,0,0,0,0,0,0,0,0,0,0,0,0,0,0,0,0,90,90,90,0,0,0,0,0,0,0,0,0,220,43,24,0,0,0,0,0,0,0,0,0,0,0,0,0,0,0,0,0,0,0,0,0,0,0,0,0,0,175,0,175,0,0,0,40,0,0,0,0,0,0,0,175,0,0,0,175,0,0,0,0,0,0,0,0,122,0,227,0,0,0,0,121,220,0,0,0,0,11,0,0,0,0,0,0,0,227,0,226,0,225,0,0,0,0,0,0,0,0,0,0,0,0,0,0,0,0,0,128,0,0,0,0,0,0,0,0,0,0,0,175,0,0,0,175,0,0,0,0,0,0,0,0,12,12,12,0,0,0,0,175,0,175,0,0,0,0,0,0,0,0,0,0,0,0,0,0,0,0,0,0,0,0,0,0,0,0,0,0,0,0,0,0,0,0,0,0,0,0,0,0,0,0,0,0,0,0,0,0,0,0,0,0,0,0,0,0,0,0,0,0,0,0,0,0,0,0,0,0,0,0,0,0,191,0,0,0,0,0,0,0,0,0,0,0,0,0,0,0,0,0,0,0,0,0,0,0,0,0,0,0,0,0,0,0,0,0,0,0,0,0,0,0]},{"id":5,"name":"collision","type":"tilelayer","width":34,"height":22,"x":0,"y":0,"opacity":1,"visible":true,"data":[1,1,1,1,1,1,1,1,1,1,1,1,1,1,1,1,1,1,1,1,1,1,1,1,1,1,1,1,1,1,1,1,1,1,1,1,1,1,1,1,1,1,1,1,1,1,1,1,1,1,1,1,1,1,1,1,1,1,1,1,1,1,1,1,1,1,1,1,1,1,0,0,0,0,1,0,1,0,0,0,0,0,0,0,0,0,0,1,1,1,1,1,0,0,1,1,1,0,1,1,1,1,1,1,0,0,1,1,1,0,1,0,1,0,0,0,1,0,0,0,0,1,1,1,1,1,0,0,1,1,1,0,1,1,1,1,1,1,0,0,0,1,1,0,0,0,0,0,1,0,0,0,1,0,0,1,1,1,0,0,0,0,1,1,1,0,0,0,0,1,1,0,1,1,0,0,1,1,0,0,1,1,0,0,1,1,0,0,1,1,1,1,1,0,0,0,1,1,1,0,0,0,0,1,1,1,0,0,0,0,0,0,0,0,0,0,0,0,0,0,0,0,0,0,0,0,0,0,0,0,0,0,0,0,1,1,1,1,1,1,0,0,0,0,0,0,0,0,0,0,0,0,0,0,0,0,0,0,0,0,0,0,0,0,0,0,0,0,1,1,1,1,1,0,1,1,0,0,1,1,0,0,1,1,0,0,1,1,0,0,1,1,1,1,1,0,0,1,1,1,1,1,1,1,1,1,0,0,0,0,0,0,0,0,0,0,0,0,0,0,0,0,0,0,0,0,1,1,1,0,0,1,1,1,1,1,1,1,1,1,0,0,0,0,0,0,0,0,0,0,0,0,0,0,0,0,0,0,0,0,0,0,0,0,0,1,1,1,1,1,1,1,1,1,1,1,1,1,1,1,1,1,1,1,0,0,1,0,0,1,1,1,1,1,1,1,0,0,0,1,1,1,1,1,1,1,1,1,1,1,1,1,1,1,1,1,1,1,0,0,1,0,0,1,1,1,1,1,1,1,0,0,0,1,1,1,1,1,1,0,0,1,1,1,1,1,1,1,1,1,1,1,0,0,1,0,0,0,0,0,0,0,1,1,0,0,0,0,0,0,0,0,0,0,0,1,1,1,1,1,1,1,1,1,1,1,0,0,1,0,0,0,0,0,0,0,1,1,0,0,0,0,0,0,1,1,1,0,1,1,1,0,0,0,0,0,0,0,0,0,0,1,1,0,0,1,1,1,1,1,0,1,0,0,0,0,0,0,1,1,1,0,1,1,1,0,0,0,0,0,0,0,0,0,0,1,1,0,0,1,1,1,1,1,0,1,0,1,1,1,0,0,0,0,0,0,1,1,1,0,0,1,0,1,0,1,0,0,0,0,1,0,0,1,1,1,1,1,0,1,0,1,1,1,0,0,0,0,0,0,0,1,1,1,1,0,0,0,0,0,0,0,0,1,1,0,0,0,0,0,0,0,0,1,0,0,0,0,0,0,1,1,0,0,0,1,1,1,1,0,0,0,0,0,0,0,0,1,1,1,1,0,0,0,0,0,0,1,0,0,0,0,0,0,1,1,0,0,1,1,1,1,0,0,0,1,0,0,0,1,0,1,1,1,1,0,0,1,1,1,1,1,1,0,0,0,0,0,0,0,0,1,1,1,1,1,1,1,1,1,1,1,1,1,1,1,1,1,1,1,1,1,1,1,1,1,1,1,1,1,1,1,1,1,1,1,1,1]},{"id":6,"name":"spawn-points","type":"objectgroup","x":0,"y":0,"opacity":1,"visible":true,"objects":[{"id":100,"name":"entrance","type":"","x":16,"y":160,"width":0,"height":0,"rotation":0,"visible":true},{"id":101,"name":"pc-1","type":"","x":48,"y":96,"width":0,"height":0,"rotation":0,"visible":true},{"id":102,"name":"pc-2","type":"","x":176,"y":96,"width":0,"height":0,"rotation":0,"visible":true},{"id":103,"name":"pc-3","type":"","x":304,"y":96,"width":0,"height":0,"rotation":0,"visible":true},{"id":104,"name":"pc-4","type":"","x":96,"y":144,"width":0,"height":0,"rotation":0,"visible":true},{"id":105,"name":"pc-5","type":"","x":224,"y":144,"width":0,"height":0,"rotation":0,"visible":true},{"id":106,"name":"cafe-seat-1","type":"","x":48,"y":256,"width":0,"height":0,"rotation":0,"visible":true},{"id":107,"name":"cafe-seat-2","type":"","x":48,"y":288,"width":0,"height":0,"rotation":0,"visible":true},{"id":108,"name":"cafe-seat-3","type":"","x":112,"y":256,"width":0,"height":0,"rotation":0,"visible":true},{"id":109,"name":"cafe-seat-4","type":"","x":112,"y":288,"width":0,"height":0,"rotation":0,"visible":true},{"id":110,"name":"cafe-stand-coffee","type":"","x":64,"y":240,"width":0,"height":0,"rotation":0,"visible":true},{"id":111,"name":"cafe-stand-vending","type":"","x":112,"y":240,"width":0,"height":0,"rotation":0,"visible":true},{"id":112,"name":"warroom-seat","type":"","x":272,"y":288,"width":0,"height":0,"rotation":0,"visible":true},{"id":113,"name":"desk-ceo","type":"","x":432,"y":96,"width":0,"height":0,"rotation":0,"visible":true},{"id":114,"name":"pc-6","type":"","x":464,"y":256,"width":0,"height":0,"rotation":0,"visible":true}]},{"id":7,"name":"zones","type":"objectgroup","x":0,"y":0,"opacity":1,"visible":true,"objects":[{"id":300,"name":"cafeteria","type":"","x":16,"y":208,"width":176,"height":128,"rotation":0,"visible":true},{"id":301,"name":"boardroom","type":"","x":208,"y":208,"width":128,"height":128,"rotation":0,"visible":true},{"id":302,"name":"principal","type":"","x":352,"y":32,"width":176,"height":96,"rotation":0,"visible":true},{"id":303,"name":"teacher","type":"","x":352,"y":160,"width":176,"height":176,"rotation":0,"visible":true}]}]}