{"compressionlevel":-1,"infinite":false,"orientation":"orthogonal","renderorder":"right-down","width":40,"height":28,"tilewidth":16,"tileheight":16,"nextlayerid":8,"nextobjectid":19,"version":"1.10","tiledversion":"1.10.2","type":"map","tilesets":[{"firstgid":2449,"columns":16,"image":"../tilesets/school-props.png","imageheight":512,"imagewidth":256,"margin":0,"name":"school-props","spacing":0,"tilecount":512,"tileheight":16,"tilewidth":16}],"layers":[{"id":1,"name":"floor","type":"tilelayer","data":[2450,2449,2449,2449,2449,2449,2449,2449,2449,2449,2449,2450,2449,2449,2449,2449,2449,2449,2449,2449,2449,2449,2450,2449,2449,2449,2449,2449,2449,2449,2449,2449,2449,2450,2449,2449,2449,2449,2449,2449,2449,2449,2449,2449,2449,2449,2450,2449,2449,2449,2449,2449,2449,2449,2449,2449,2449,2450,2449,2449,2449,2449,2449,2449,2449,2449,2449,2449,2450,2449,2449,2449,2449,2449,2449,2449,2449,2449,2449,2450,2449,2450,2449,2449,2449,2449,2449,2449,2449,2449,2449,2449,2450,2449,2449,2449,2449,2449,2449,2449,2449,2449,2449,2450,2449,2449,2449,2449,2449,2449,2449,2449,2449,2449,2450,2449,2449,2449,2449,2449,2449,2449,2449,2449,2449,2449,2449,2450,2449,2449,2449,2449,2449,2449,2449,2449,2449,2449,2450,2449,2449,2449,2449,2449,2449,2449,2449,2449,2449,2450,2449,2449,2449,2449,2449,2449,2449,2449,2449,2449,2449,2449,2450,2449,2449,2449,2449,2449,2449,2449,2449,2449,2449,2450,2449,2449,2449,2449,2449,2449,2449,2449,2449,2449,2450,2449,2449,2449,2449,2449,2449,2449,2449,2449,2449,2450,2449,2449,2449,2449,2449,2449,2453,2453,2453,2453,2453,2453,2453,2453,2453,2449,2449,2449,2449,2449,2449,2449,2449,2450,2449,2449,2449,2449,2449,2449,2449,2449,2449,2449,2450,2453,2453,2453,2453,2453,2453,2453,2453,2449,2449,2449,2453,2453,2453,2453,2453,2453,2453,2453,2453,2449,2449,2449,2450,2449,2449,2449,2449,2449,2449,2449,2449,2449,2449,2450,2449,2449,2449,2449,2449,2453,2453,2453,2453,2453,2453,2453,2453,2449,2449,2449,2453,2453,2453,2453,2453,2453,2453,2453,2453,2449,2449,2449,2449,2449,2449,2449,2449,2449,2450,2449,2449,2449,2449,2449,2449,2449,2449,2449,2449,2453,2453,2453,2453,2453,2453,2453,2453,2449,2449,2449,2453,2453,2453,2453,2453,2453,2453,2453,2453,2449,2449,2449,2449,2450,2449,2449,2449,2449,2449,2449,2449,2449,2449,2449,2450,2449,2449,2449,2449,2453,2453,2453,2453,2453,2453,2453,2453,2449,2449,2449,2453,2453,2453,2453,2453,2453,2453,2453,2453,2449,2449,2451,2451,2451,2451,2451,2451,2451,2451,2451,2451,2451,2451,2451,2451,2451,2451,2449,2449,2453,2453,2453,2453,2453,2453,2453,2453,2449,2449,2449,2453,2453,2453,2453,2453,2453,2453,2453,2453,2449,2449,2451,2451,2451,2451,2451,2451,2451,2451,2451,2451,2451,2451,2451,2451,2451,2451,2449,2449,2453,2453,2453,2453,2453,2453,2453,2453,2449,2450,2449,2453,2453,2453,2453,2453,2453,2453,2453,2453,2450,2449,2451,2451,2451,2451,2451,2451,2451,2451,2451,2451,2451,2451,2451,2451,2451,2451,2449,2449,2453,2453,2453,2453,2453,2453,2453,2453,2449,2449,2449,2449,2449,2449,2449,2450,2449,2449,2449,2449,2449,2449,2451,2451,2451,2451,2451,2451,2451,2451,2451,2451,2451,2451,2451,2451,2451,2451,2449,2449,2453,2453,2453,2453,2453,2453,2453,2453,2450,2449,2450,2449,2449,2449,2449,2449,2449,2449,2449,2449,2449,2450,2451,2451,2451,2451,2451,2451,2451,2451,2451,2451,2451,2451,2451,2451,2451,2451,2449,2449,2449,2449,2449,2450,2449,2449,2449,2449,2449,2449,2449,2449,2449,2449,2449,2449,2450,2449,2449,2449,2449,2449,2451,2451,2451,2451,2451,2451,2451,2451,2451,2451,2451,2451,2451,2451,2451,2451,2450,2449,2449,2449,2449,2449,2449,2449,2449,2449,2449,2449,2449,2450,2449,2449,2449,2449,2449,2449,2449,2449,2449,2449,2451,2451,2451,2451,2451,2451,2451,2451,2451,2451,2451,2451,2451,2451,2451,2451,2449,2449,2449,2449,2449,2449,2450,2449,2449,2449,2449,2449,2449,2449,2449,2449,2449,2449,2449,2450,2449,2449,2449,2449,2451,2451,2451,2451,2451,2451,2451,2451,2451,2451,2451,2451,2451,2451,2451,2451,2449,2450,2449,2449,2449,2449,2449,2449,2449,2449,2449,2449,2449,2449,2450,2449,2449,2449,2449,2449,2449,2449,2449,2449,2451,2451,2451,2451,2451,2451,2451,2451,2451,2451,2451,2451,2451,2451,2451,2451,2449,2453,2453,2453,2453,2453,2453,2453,2453,2453,2449,2449,2449,2449,2449,2449,2449,2449,2449,2449,2450,2449,2449,2449,2451,2451,2451,2451,2451,2451,2451,2451,2451,2451,2451,2451,2451,2451,2451,2451,2449,2453,2453,2453,2453,2453,2453,2453,2453,2453,2449,2449,2452,2452,2452,2452,2452,2452,2452,2452,2452,2452,2449,2449,2449,2449,2450,2449,2449,2449,2449,2449,2449,2449,2449,2449,2449,2450,2449,2449,2449,2453,2453,2453,2453,2453,2453,2453,2453,2453,2449,2449,2452,2452,2452,2452,2452,2452,2452,2452,2452,2452,2449,2449,2449,2449,2449,2449,2449,2449,2449,2449,2450,2449,2449,2449,2449,2449,2449,2449,2449,2453,2453,2453,2453,2453,2453,2453,2453,2453,2449,2449,2452,2452,2452,2452,2452,2452,2452,2452,2452,2452,2449,2449,2449,2449,2449,2450,2449,2449,2449,2449,2449,2449,2449,2449,2449,2449,2450,2449,2449,2453,2453,2453,2453,2453,2453,2453,2453,2453,2449,2450,2452,2452,2452,2452,2452,2452,2452,2452,2452,2452,2450,2449,2449,2449,2449,2449,2449,2449,2449,2449,2449,2450,2449,2449,2449,2449,2449,2449,2449,2453,2453,2453,2453,2453,2453,2453,2453,2453,2449,2449,2452,2452,2452,2452,2452,2452,2452,2452,2452,2452,2449,2449,2449,2449,2449,2449,2450,2449,2449,2449,2449,2449,2449,2449,2449,2449,2449,2450,2449,2453,2453,2453,2453,2453,2453,2453,2453,2453,2450,2449,2452,2452,2452,2452,2452,2452,2452,2452,2452,2452,2449,2450,2449,2449,2449,2454,2454,2454,2454,2454,2454,2454,2450,2449,2449,2449,2449,2449,2449,2453,2453,2453,2453,2453,2453,2453,2453,2453,2449,2449,2452,2452,2452,2452,2452,2452,2452,2452,2452,2452,2449,2449,2449,2449,2449,2454,2454,2454,2454,2454,2454,2454,2449,2449,2449,2449,2449,2449,2450,2453,2453,2453,2453,2453,2453,2453,2453,2453,2449,2449,2449,2450,2449,2449,2449,2449,2449,2449,2449,2449,2449,2449,2450,2449,2449,2454,2454,2454,2454,2454,2454,2454,2449,2450,2449,2449,2449,2449,2449,2449,2449,2449,2449,2449,2450,2449,2449,2449,2449,2449,2449,2449,2449,2449,2449,2449,2449,2450,2449,2449,2449,2449,2449,2449,2449,2449,2449,2449,2450,2449,2449,2449,2449,2449,2449,2449,2449,2449,2449,2450,2449,2449,2449,2449,2449,2449,2449,2449,2449],"width":40,"height":28,"x":0,"y":0,"opacity":1,"visible":true},{"id":2,"name":"walls","type":"tilelayer","data":[2455,2679,2680,2455,2459,2460,2461,2462,2455,2459,2460,2461,2462,2455,2459,2460,2461,2462,2455,2459,2460,2461,2462,2455,2455,2455,2455,2455,2455,2455,2455,2455,2455,2455,2459,2460,2461,2462,2455,2455,2471,2695,2696,2471,2475,2476,2477,2478,2471,2475,2476,2477,2478,2471,2475,2476,2477,2478,2471,2475,2476,2477,2478,2471,2471,2471,2471,2471,2471,2471,2471,2471,2471,2471,2475,2476,2477,2478,2471,2471,2456,0,0,0,0,0,0,0,0,0,0,0,0,0,0,0,0,0,0,0,0,0,0,0,0,0,0,0,0,0,0,0,0,0,0,0,0,0,0,2456,2456,0,0,0,0,0,0,0,0,0,0,0,0,0,0,0,0,0,0,0,0,0,0,0,0,0,0,0,0,0,0,0,0,0,0,0,0,0,0,2456,2456,2457,2457,2457,2457,2457,2457,2457,2457,2457,2457,2457,0,0,0,0,0,0,0,0,0,0,0,0,0,0,0,0,0,0,2457,2457,2457,2457,2457,2457,2457,2457,2457,2456,2456,0,0,0,0,0,0,0,0,0,0,2458,0,0,0,0,0,0,0,0,0,0,0,0,0,0,0,0,0,0,2458,0,0,0,0,0,0,0,0,2456,2456,0,0,0,0,0,0,0,0,0,0,2458,0,0,0,0,2673,2674,2675,2676,2677,2678,0,0,0,0,0,0,0,0,2458,0,0,0,0,0,0,0,0,2456,2456,0,0,0,0,0,0,0,0,0,0,2458,0,0,0,0,2689,2690,2691,2692,2693,2694,0,0,0,0,0,0,0,0,2458,0,0,0,0,0,0,0,0,2456,2456,0,0,0,0,0,0,0,0,0,0,0,0,0,0,0,0,0,0,0,0,0,0,0,0,0,0,0,0,0,2458,0,0,0,0,0,0,0,0,2456,2456,0,0,0,0,0,0,0,0,0,0,0,0,0,0,0,0,0,0,0,0,0,0,0,0,0,0,0,0,0,2458,0,0,0,0,0,0,0,0,2456,2456,0,0,0,0,0,0,0,0,0,0,2458,0,0,0,0,0,0,0,0,0,0,0,0,0,0,0,0,0,0,2458,0,0,0,0,0,0,0,0,2456,2456,0,0,0,0,0,0,0,0,0,0,2458,0,0,0,0,0,0,0,0,0,0,0,0,0,0,0,0,0,0,0,0,0,0,0,0,0,0,0,2456,2456,2457,2457,2457,2457,2457,2457,2457,2457,2457,2457,2457,0,0,0,0,0,0,0,0,0,0,0,0,0,0,0,0,0,0,0,0,0,0,0,0,0,0,0,2456,2456,0,0,0,0,0,0,0,0,0,0,0,0,0,0,0,0,0,0,0,0,0,0,0,0,0,0,0,0,0,2457,2457,2457,2457,2457,2457,2457,2457,2457,2456,2456,0,0,0,0,0,0,0,0,0,0,0,0,0,0,0,0,0,0,0,0,0,0,0,0,0,0,0,0,0,0,0,0,0,0,0,0,0,0,2456,2456,0,0,0,0,0,0,0,0,0,0,0,0,0,0,0,0,0,0,0,0,0,0,0,0,0,0,0,0,0,0,0,0,0,0,0,0,0,0,2456,2456,0,0,0,0,0,0,0,0,0,0,0,0,0,0,0,0,0,0,0,0,0,0,0,0,0,0,0,0,0,2457,2457,2457,2457,2457,2457,2457,2457,2457,2456,2456,0,0,0,0,0,0,0,0,0,0,0,0,0,0,0,0,0,0,0,0,0,0,0,0,0,0,0,0,2458,0,0,0,0,0,0,0,0,0,2456,2456,0,0,0,0,0,0,0,0,0,0,0,0,0,0,0,0,0,0,0,0,0,0,0,0,0,0,0,0,2458,0,0,0,0,0,0,0,0,0,2456,2456,0,0,0,0,0,0,0,0,0,0,0,0,0,0,0,0,0,0,0,0,0,0,0,0,0,0,0,0,2458,0,0,0,0,0,0,0,0,0,2456,2456,0,0,0,0,0,0,0,0,0,0,0,0,0,0,0,0,0,0,0,0,0,0,0,0,0,0,0,0,0,0,0,0,0,0,0,0,0,0,2456,2456,0,0,0,0,0,0,0,0,0,0,0,0,0,0,0,0,0,0,0,0,0,0,0,0,0,0,0,0,0,0,0,0,0,0,0,0,0,0,2456,2456,0,0,0,0,0,0,0,0,0,0,0,0,0,0,0,0,0,0,0,0,0,0,0,0,0,0,0,0,2458,0,0,0,0,0,0,0,0,0,2456,2456,0,0,0,0,0,0,0,0,0,0,0,0,0,0,0,0,0,0,0,0,0,0,0,0,0,0,0,0,2458,0,0,0,0,0,0,0,0,0,2456,2456,0,0,0,0,0,0,0,0,0,0,0,0,0,0,0,0,0,0,0,0,0,0,0,0,0,0,0,0,2458,0,0,0,0,0,0,0,0,0,2456,2456,0,0,0,0,0,0,0,0,0,0,0,0,0,0,0,0,0,0,0,0,0,0,0,0,0,0,0,0,0,0,0,0,0,0,0,0,0,0,2456,2456,0,0,0,0,0,0,0,0,0,0,0,0,0,0,0,0,0,0,0,0,0,0,0,0,0,0,0,0,0,0,0,0,0,0,0,0,0,0,2456,2456,2457,2457,2457,2457,2457,2457,2457,2457,2457,2457,2457,2457,2457,2457,2457,2457,2457,2457,2681,2682,2457,2457,2457,2457,2457,2457,2457,2457,2457,2457,2457,2457,2457,2457,2457,2457,2457,2457,2456],"width":40,"height":28,"x":0,"y":0,"opacity":1,"visible":true},{"id":3,"name":"furniture-below","type":"tilelayer","data":[0,0,0,0,0,0,0,0,0,0,0,0,0,0,0,0,0,0,0,0,0,0,0,0,0,0,0,0,0,0,0,0,0,0,0,0,0,0,0,0,0,0,0,0,0,0,0,0,0,0,0,0,0,0,0,0,0,0,0,0,0,0,0,0,0,0,0,0,0,0,0,0,0,0,0,0,0,0,0,0,0,0,0,0,0,0,0,0,0,0,0,0,0,0,0,0,0,0,0,0,0,0,0,0,0,0,0,0,0,0,0,0,0,0,0,0,0,0,0,0,0,0,0,0,0,0,0,0,0,0,0,0,0,2593,2594,2595,2596,2597,2598,2599,2600,2601,0,2604,0,0,0,2554,0,0,0,0,0,0,0,0,0,0,0,0,0,0,0,0,0,0,0,0,0,0,0,0,0,2609,2610,2611,2612,2613,2614,2615,2616,2617,0,2620,0,0,0,2570,0,0,0,0,0,0,0,0,0,0,0,0,0,0,2554,0,0,0,0,0,0,0,0,0,0,0,0,0,0,0,0,0,0,0,0,0,0,0,0,0,0,0,0,2551,2552,2553,0,0,0,2554,0,0,0,0,2570,0,0,2528,0,2528,0,0,0,0,0,0,0,0,0,0,0,0,0,0,0,0,0,0,0,0,0,0,0,2567,2568,2569,0,0,0,2570,0,0,0,0,0,0,2546,2547,2548,2549,2550,0,0,0,0,0,0,0,0,0,0,0,0,0,0,0,0,0,0,0,0,0,0,0,0,0,0,0,0,0,0,0,0,0,0,2528,2562,2563,2564,2565,2566,2528,0,0,0,0,0,0,0,0,0,0,0,0,0,0,0,0,0,0,0,0,0,0,0,2521,2522,2523,2524,2525,0,0,0,0,0,0,2578,2579,2580,2581,2582,0,0,0,0,0,0,0,0,0,0,0,0,0,0,0,0,0,0,0,0,0,0,0,0,2537,2538,2539,2540,2541,0,0,0,0,0,0,0,2528,0,2528,0,2554,0,0,0,0,2513,2514,2515,2516,0,0,2513,2514,2515,2516,0,0,2513,2514,2515,2516,0,0,0,0,2545,0,0,0,0,0,0,0,0,0,0,0,0,0,0,2570,0,0,0,0,2529,2530,2531,2532,0,0,2529,2530,2531,2532,0,0,2529,2530,2531,2532,0,0,2651,2652,0,0,0,2554,0,0,0,0,0,0,0,0,0,0,0,0,0,0,0,0,0,2545,0,0,0,0,0,2545,0,0,0,0,0,2545,0,0,0,0,0,0,0,0,0,2570,0,0,0,0,0,0,0,0,0,0,0,0,0,0,0,0,0,0,0,0,0,0,0,0,0,0,0,0,0,0,0,0,0,0,0,0,0,0,0,0,0,0,0,2551,2552,2553,0,0,2551,2552,2553,0,0,0,0,0,0,0,0,0,0,0,0,0,0,0,0,0,0,0,0,0,0,0,0,0,0,0,0,0,0,0,0,2567,2568,2569,0,0,2567,2568,2569,0,0,0,0,0,2513,2514,2515,2516,0,0,2513,2514,2515,2516,0,0,0,0,0,0,0,0,0,0,0,0,0,0,0,0,0,2648,2649,2650,0,0,0,0,0,0,2554,0,0,0,2529,2530,2531,2532,0,0,2529,2530,2531,2532,0,2554,0,0,0,0,0,0,0,0,0,0,0,0,0,0,0,2664,2665,2666,0,0,0,0,0,0,2570,0,0,0,0,2545,0,0,0,0,0,2545,0,0,0,2570,0,0,0,0,0,0,0,0,0,0,0,0,0,0,0,0,0,0,0,0,0,0,0,0,0,0,0,0,0,0,0,0,0,0,0,0,0,0,0,0,0,0,0,0,0,0,2517,2518,2519,2520,0,2554,0,0,0,0,0,0,0,0,0,0,0,0,0,0,0,0,0,0,0,0,0,0,0,0,0,0,0,0,0,0,0,0,0,0,2533,2534,2535,2536,0,2570,0,0,0,0,2555,2556,2557,0,0,2555,2556,2557,0,0,0,0,0,0,0,0,0,0,0,0,0,0,0,0,0,0,0,0,0,0,0,2545,0,0,0,0,0,0,0,0,0,2558,2559,0,0,2558,2559,0,0,0,0,0,0,0,0,0,0,0,0,0,0,0,0,0,0,0,0,0,0,0,0,0,0,0,0,0,0,0,0,0,2555,2556,2557,0,0,2555,2556,2557,0,0,0,0,0,0,2641,2642,2643,2644,2645,2646,2647,0,0,0,0,0,0,0,0,0,0,0,0,0,0,0,0,0,0,0,0,0,0,0,0,0,0,0,0,0,0,0,2554,0,2657,2658,2659,2660,2661,2662,2663,0,2554,0,0,0,0,0,0,0,0,0,0,2551,2552,2553,0,0,0,2551,2552,2553,0,0,0,0,0,2605,2606,0,0,0,2570,0,0,0,0,0,0,0,0,0,2570,0,0,0,0,0,0,2651,2652,0,0,2567,2568,2569,0,0,0,2567,2568,2569,0,0,0,0,0,2621,2622,0,2653,0,0,0,0,0,0,0,0,0,0,0,0,0,0,0,0,0,0,0,0,0,0,0,0,2653,0,0,0,0,0,0,0,0,0,0,0,2637,2638,0,0,0,0,0,0,0,0,0,0,0,0,0,0,0,0,0,0,0,0,0,0,0,0,0,0,0,0,0,0,0,0,0,0,0,0,0,0,0,0,0,0,0,0,0,0,0,0,0,0,0,0,0,0,0,0,0,0,0,0,0,0,0,0,0,0,0,0,0],"width":40,"height":28,"x":0,"y":0,"opacity":1,"visible":true},{"id":4,"name":"furniture-above","type":"tilelayer","data":[0,0,0,0,0,0,0,0,0,0,0,0,0,0,0,0,0,0,0,0,0,0,0,0,0,0,0,0,0,0,0,0,0,0,0,0,0,0,0,0,0,0,0,0,0,0,0,0,0,0,0,0,0,0,0,0,0,0,0,0,0,0,0,0,0,0,0,0,0,0,0,0,0,0,0,0,0,0,0,0,0,0,0,0,0,0,0,0,0,0,0,0,0,0,0,0,0,0,0,0,0,0,0,0,0,0,0,0,0,0,0,0,0,0,0,0,0,0,0,0,0,0,0,0,0,0,0,0,0,0,0,0,0,0,2602,0,0,0,0,0,2603,0,0,0,0,0,0,0,0,0,0,0,0,0,0,0,0,0,0,0,0,0,0,2491,2492,2493,2494,2495,0,0,0,0,0,0,0,0,0,0,0,0,0,0,0,0,0,0,0,0,0,0,0,0,2486,2487,2488,2489,2490,0,0,0,0,0,0,0,0,0,0,0,0,0,0,0,0,0,0,0,0,0,0,0,0,0,0,0,0,0,0,0,0,0,0,0,0,0,0,0,0,0,0,0,0,0,0,0,0,0,0,0,0,0,0,0,0,0,0,0,0,0,0,0,0,0,0,0,0,0,0,0,0,0,0,0,0,0,0,0,0,0,0,0,0,0,0,0,0,0,0,0,0,0,0,0,0,0,0,0,0,0,0,0,0,0,0,0,0,0,0,0,0,0,0,0,0,0,0,0,0,0,0,0,0,0,0,0,0,0,0,0,0,0,0,0,0,0,0,0,0,0,2481,2482,2483,2484,2485,0,0,0,0,0,0,0,0,0,0,0,2526,0,0,0,0,0,0,0,0,0,0,0,0,0,0,0,0,0,0,0,0,0,0,0,0,0,0,0,0,0,0,0,0,0,0,0,0,0,0,0,0,0,0,0,0,0,0,0,0,0,0,0,0,0,0,0,0,0,0,0,0,2526,0,0,0,0,0,2526,0,0,0,0,0,2526,0,0,0,0,0,0,0,0,0,0,0,0,0,0,0,0,0,0,0,0,0,0,0,0,0,0,0,0,0,0,0,0,0,0,0,0,0,0,0,0,0,0,0,0,0,0,0,0,0,0,0,0,0,0,0,0,0,0,0,0,0,0,0,0,0,0,0,0,0,0,0,0,0,0,0,0,0,0,0,0,0,0,0,0,0,0,0,0,0,0,0,0,0,0,0,2503,2504,2505,2506,2507,0,0,0,0,0,0,0,0,0,0,0,0,0,0,0,0,0,0,0,0,0,0,0,0,0,0,0,0,0,0,0,0,0,0,0,0,0,0,0,0,0,0,0,0,0,0,0,0,0,0,0,0,0,0,0,0,0,0,0,0,0,0,0,0,0,0,0,0,0,0,0,0,0,0,0,0,0,0,0,0,0,0,0,0,0,0,0,2526,0,0,0,0,0,2526,0,0,0,0,0,0,0,0,0,0,0,0,0,0,0,0,0,0,0,0,0,0,0,0,0,0,0,0,0,0,0,0,0,0,0,0,0,0,0,0,0,0,0,0,0,0,0,0,0,0,2508,2509,2510,2511,2512,0,0,0,0,0,0,0,0,0,0,0,0,0,0,0,0,0,0,0,0,0,0,0,0,0,0,0,0,0,0,0,0,0,0,0,0,0,0,0,0,0,0,0,0,0,0,2497,2498,2499,2500,2501,2502,0,0,0,0,0,0,0,0,0,0,0,0,0,0,0,0,0,0,0,0,0,0,0,0,2526,0,0,0,0,0,0,0,0,0,0,0,0,0,0,0,0,0,0,0,0,0,0,0,0,0,0,0,0,0,0,0,0,0,0,0,0,0,0,0,0,0,0,0,0,0,0,0,0,0,0,0,0,0,0,0,0,0,0,0,0,0,0,0,0,0,0,0,0,0,0,0,0,0,0,0,0,0,0,0,0,0,0,0,0,0,0,0,0,0,0,0,0,0,0,0,0,0,0,0,0,0,0,0,0,0,0,0,0,0,0,0,0,0,0,0,0,0,0,0,0,0,0,0,0,0,0,0,0,0,0,0,0,0,0,0,0,0,0,0,0,0,0,0,0,0,0,0,0,0,0,0,0,0,0,0,0,0,0,0,0,0,0,0,0,0,0,0,0,0,0,0,0,0,0,0,0,0,0,0,0,0,0,0,0,0,0,0,0,0,0,0,0,0,0,0,0,0,0,0,0,0,0,0,0,0,0,0,0,0,0,0,0,0,0,0,0,0,0,0,0,0,0,0,0,0,0,0,0,0,0,0,0,0,0,0,0,0,0,0,0,0,0,0,0,0,0,0,0,0,0,0,0,0,0,0,0,0,0,0,0,0,0,0,0,0,0,0,0,0,0,0,0,0,0,0,0,0,0,0,0,0,0,0,0,0,0,0,0,0,0,0,0,0,0,0,0,0,0,0,0,0,0,0,0,0,0,0,0,0,0,0,0,0,0,0,0,0,0,0,0,0,0,0,0,0,0,0,0,0,0,0,0,0,0,0,0,0,0,0,0,0,0,0,0,0,0,0,0,0,0,0,0,0,0,0,0,0,0,0,0,0,0,0,0,0,0],"width":40,"height":28,"x":0,"y":0,"opacity":1,"visible":true},{"id":5,"name":"collision","type":"tilelayer","data":[1,1,1,1,1,1,1,1,1,1,1,1,1,1,1,1,1,1,1,1,1,1,1,1,1,1,1,1,1,1,1,1,1,1,1,1,1,1,1,1,1,1,1,1,1,1,1,1,1,1,1,1,1,1,1,1,1,1,1,1,1,1,1,1,1,1,1,1,1,1,1,1,1,1,1,1,1,1,1,1,1,0,0,0,0,0,0,0,0,0,0,0,0,0,0,0,0,0,0,0,0,0,0,0,0,0,0,0,0,0,0,0,0,0,0,0,0,0,0,1,1,0,0,0,0,0,0,0,0,0,0,0,0,1,1,1,1,1,1,1,1,1,0,1,0,0,0,1,0,0,0,0,0,0,0,0,0,0,0,1,1,1,1,1,1,1,1,1,1,1,1,1,0,1,1,1,1,1,1,1,1,1,0,1,0,0,0,1,0,0,1,1,1,1,1,1,1,1,1,1,1,0,1,0,0,0,0,0,0,0,0,1,0,0,0,0,0,0,0,0,0,0,0,0,0,0,0,0,0,0,1,1,1,1,0,0,0,1,0,1,1,0,1,0,0,0,0,0,0,0,0,1,0,0,0,0,1,1,1,1,1,1,0,0,0,0,0,0,0,0,1,1,1,1,0,0,0,1,0,1,1,0,0,0,1,1,1,1,1,0,0,1,0,0,0,0,1,1,1,1,1,1,0,0,0,0,0,0,0,0,1,0,0,0,0,0,0,0,0,1,1,0,0,0,1,1,1,1,1,0,0,0,0,0,0,0,0,0,0,0,0,0,0,0,0,0,0,0,0,0,1,0,0,1,1,1,1,1,0,1,1,0,0,0,1,1,1,1,1,0,0,0,0,0,0,0,0,0,0,0,0,0,0,0,0,0,0,0,0,0,1,0,0,1,1,1,1,1,0,1,1,0,0,0,0,0,0,0,0,1,0,1,0,0,1,1,1,1,0,0,1,1,1,1,0,0,1,1,1,1,1,0,0,0,0,0,0,0,0,1,1,0,0,0,0,0,0,0,0,1,0,1,0,0,1,1,1,1,0,0,1,1,1,1,0,0,1,1,1,1,0,0,1,1,0,0,0,1,0,1,1,1,1,1,1,1,1,1,1,1,1,1,0,0,0,0,0,0,0,0,0,0,0,0,0,0,0,0,0,0,0,0,0,0,0,0,0,1,0,1,1,0,0,0,0,0,0,0,0,0,0,0,0,0,0,0,0,0,0,0,0,0,0,0,0,0,0,0,0,0,1,1,1,1,1,1,1,1,1,1,1,1,1,1,0,0,1,1,1,0,0,0,0,0,0,0,0,0,0,0,0,0,0,0,0,0,0,0,0,0,0,0,0,0,0,0,0,0,0,1,1,1,1,1,0,0,1,1,1,0,0,0,0,0,1,1,1,1,0,0,1,1,1,1,0,0,0,0,0,0,0,0,0,0,0,0,0,0,0,1,1,1,1,1,0,0,0,0,0,0,1,0,0,0,1,1,1,1,0,0,1,1,1,1,0,1,0,0,0,0,1,1,1,1,1,1,1,1,1,1,1,1,1,1,0,0,0,0,0,0,1,0,0,0,0,0,0,0,0,0,0,0,0,0,0,1,0,0,0,1,0,0,0,0,0,0,0,0,0,1,1,0,0,0,0,0,0,0,0,0,0,0,0,0,0,0,0,0,0,0,0,0,0,0,0,0,0,0,0,1,0,0,1,1,1,1,0,1,0,1,1,0,0,0,0,0,0,0,0,0,0,0,0,0,0,0,0,0,0,0,0,0,0,0,0,0,0,0,0,1,0,0,1,1,1,1,0,1,0,1,1,0,1,0,1,0,0,1,0,1,0,0,0,0,0,0,0,0,0,0,0,0,0,0,0,0,0,0,0,0,0,0,0,0,0,0,0,0,0,1,1,0,0,1,1,0,0,1,1,0,0,0,0,0,0,0,0,0,0,0,0,0,0,0,0,0,0,0,0,0,0,0,0,0,0,0,0,0,0,1,1,0,1,0,1,0,0,1,0,1,0,0,0,0,0,0,1,1,1,1,1,1,1,0,0,0,0,0,0,1,0,0,0,0,0,0,0,0,0,1,1,0,0,0,0,0,0,0,0,0,0,0,0,0,1,0,1,1,1,1,1,1,1,0,1,0,0,0,0,1,0,0,0,0,0,1,1,1,0,1,1,1,1,1,0,0,0,0,0,1,1,0,0,0,1,0,0,0,0,0,0,0,0,0,1,0,0,0,0,1,0,1,1,0,0,1,1,1,0,1,1,1,1,1,0,0,0,0,0,1,1,0,1,0,0,0,0,0,0,0,0,0,0,0,0,0,0,0,0,0,0,0,0,0,0,0,0,1,0,1,1,0,0,0,0,0,0,0,0,1,1,0,0,0,0,0,0,0,0,0,0,0,0,0,0,0,0,0,0,0,0,0,0,0,0,0,0,0,0,1,1,1,1,1,1,1,1,1,1,1,1,1,1,1,1,1,1,1,1,0,0,1,1,1,1,1,1,1,1,1,1,1,1,1,1,1,1,1,1,1],"width":40,"height":28,"x":0,"y":0,"opacity":1,"visible":true},{"id":6,"name":"spawn-points","type":"objectgroup","objects":[{"id":1,"name":"desk-ceo","point":true,"x":552,"y":168,"width":0,"height":0,"rotation":0,"type":"","visible":true},{"id":2,"name":"pc-1","point":true,"x":248,"y":200,"width":0,"height":0,"rotation":0,"type":"","visible":true},{"id":3,"name":"pc-2","point":true,"x":344,"y":200,"width":0,"height":0,"rotation":0,"type":"","visible":true},{"id":4,"name":"pc-3","point":true,"x":440,"y":200,"width":0,"height":0,"rotation":0,"type":"","visible":true},{"id":5,"name":"pc-4","point":true,"x":248,"y":280,"width":0,"height":0,"rotation":0,"type":"","visible":true},{"id":6,"name":"pc-5","point":true,"x":344,"y":280,"width":0,"height":0,"rotation":0,"type":"","visible":true},{"id":7,"name":"pc-6","point":true,"x":536,"y":328,"width":0,"height":0,"rotation":0,"type":"","visible":true},{"id":8,"name":"cafe-seat-1","point":true,"x":56,"y":328,"width":0,"height":0,"rotation":0,"type":"","visible":true},{"id":9,"name":"cafe-seat-2","point":true,"x":56,"y":360,"width":0,"height":0,"rotation":0,"type":"","visible":true},{"id":10,"name":"cafe-seat-3","point":true,"x":136,"y":328,"width":0,"height":0,"rotation":0,"type":"","visible":true},{"id":11,"name":"cafe-seat-4","point":true,"x":136,"y":360,"width":0,"height":0,"rotation":0,"type":"","visible":true},{"id":12,"name":"cafe-stand-coffee","point":true,"x":264,"y":88,"width":0,"height":0,"rotation":0,"type":"","visible":true},{"id":13,"name":"cafe-stand-vending","point":true,"x":136,"y":408,"width":0,"height":0,"rotation":0,"type":"","visible":true},{"id":14,"name":"entrance","point":true,"x":312,"y":424,"width":0,"height":0,"rotation":0,"type":"","visible":true}],"x":0,"y":0,"opacity":1,"visible":true,"draworder":"topdown"},{"id":7,"name":"zones","type":"objectgroup","objects":[{"id":15,"name":"boardroom","x":32,"y":80,"width":144,"height":112,"rotation":0,"type":"","visible":true},{"id":16,"name":"cafeteria","x":16,"y":304,"width":160,"height":112,"rotation":0,"type":"","visible":true},{"id":17,"name":"principal","x":496,"y":80,"width":128,"height":128,"rotation":0,"type":"","visible":true},{"id":18,"name":"teacher","x":480,"y":272,"width":144,"height":144,"rotation":0,"type":"","visible":true}],"x":0,"y":0,"opacity":1,"visible":true,"draworder":"topdown"}]}